src/assets/detalles.svg

<svg width="389" height="111" viewBox="0 0 389 111" fill="none" xmlns="http://www.w3.org/2000/svg">
<path d="M12.0847 67.6193C10.4812 67.6193 9.03641 66.7849 8.4351 66.2727C8.23466 66.4709 7.87554 67.0657 7.79203 67.6193H7.03203V62.1502H7.87554C8.1595 64.7691 9.99685 66.314 12.3687 66.314C13.6548 66.314 14.6904 65.6035 14.6904 64.4139C14.6904 63.3812 13.7718 62.5881 12.1265 61.8363L9.87992 60.7623C8.23466 60.0106 7.07379 58.697 7.07379 56.9538C7.07379 55.0537 8.87773 53.4262 11.3247 53.4262C12.6443 53.4262 13.7718 53.9054 14.49 54.4589C14.6487 54.3019 14.8909 53.8641 14.9744 53.3849H15.7344V58.0609H14.8909C14.6069 56.1938 13.5713 54.6489 11.4834 54.6489C10.3226 54.6489 9.27861 55.285 9.27861 56.2764C9.27861 57.2678 10.1221 57.8626 12.043 58.7383L14.2896 59.8123C16.2104 60.721 16.937 62.1916 16.937 63.3812C16.937 65.8761 14.7322 67.6275 12.0847 67.6275V67.6193Z" fill="#F9F5ED"/>
<path d="M23.8354 64.133C23.0754 65.7191 23.0754 66.3553 25.5558 66.3553V67.1071H19.1836V66.3553C21.188 66.3553 21.5471 65.8431 22.5493 63.6621L27.4433 53.3932H28.1615L33.0138 63.6621C34.016 65.8018 34.4169 66.3553 36.2208 66.3553V67.1071H28.4873V66.3553C30.7756 66.3553 31.0094 65.7191 30.2494 64.133L29.6481 62.8277H24.4367L23.8354 64.133ZM27.0424 57.3834L25.038 61.6298H29.0468L27.0424 57.3834ZM32.0116 48.5851L26.5163 50.923L26.3158 50.6422L30.0406 47.1559C30.7255 46.561 31.1598 46.2471 31.8028 46.2471C32.5628 46.2471 32.9637 46.9245 32.9637 47.3954C32.9637 47.9903 32.3624 48.4281 32.0033 48.5851H32.0116Z" fill="#F9F5ED"/>
<path d="M38.3004 66.347C40.5469 66.347 40.9061 65.8348 40.9061 63.0177V57.9452C40.9061 55.1281 40.5469 54.6572 38.3004 54.6572V53.9054H45.4744C48.6814 53.9054 50.3266 55.409 50.3266 57.3586C50.3266 58.3087 49.884 59.1844 49.124 59.8536C50.644 60.531 51.5293 61.8363 51.5293 63.3068C51.5293 65.4052 49.6418 67.1153 46.1174 67.1153H38.3004V66.347ZM45.3157 55.0868H43.6704V59.5314H45.3157C46.8023 59.5314 47.4788 58.4987 47.4788 57.3504C47.4788 56.2021 46.7939 55.0868 45.3157 55.0868ZM46.0757 60.7541H43.6704V63.8108C43.6704 65.5539 43.8709 65.8761 45.5161 65.8761H46.0757C47.7961 65.8761 48.6396 64.6865 48.6396 63.2986C48.6396 61.9107 47.7961 60.7623 46.0757 60.7623V60.7541Z" fill="#F9F5ED"/>
<path d="M58.5446 64.133C57.7846 65.7191 57.7846 66.3553 60.265 66.3553V67.1071H53.8928V66.3553C55.8971 66.3553 56.2563 65.8431 57.2584 63.6621L62.1525 53.3932H62.8707L67.723 63.6621C68.7252 65.8018 69.1261 66.3553 70.93 66.3553V67.1071H63.1964V66.3553C65.4848 66.3553 65.7186 65.7191 64.9586 64.133L64.3573 62.8277H59.1459L58.5446 64.133ZM61.7516 57.3834L59.7472 61.6298H63.756L61.7516 57.3834Z" fill="#F9F5ED"/>
<path d="M73.0179 66.347C75.2645 66.347 75.6236 65.8348 75.6236 63.0177V57.9452C75.6236 55.1281 75.2645 54.6572 73.0179 54.6572V53.9054H80.1919C85.9211 53.9054 88.4099 56.8795 88.4099 60.4897C88.4099 64.0999 85.9211 67.1153 80.1919 67.1153H73.0179V66.347ZM78.3963 55.0868V63.6951C78.3963 65.5209 78.5967 65.8761 80.0416 65.8761H80.3255C84.493 65.8761 85.253 62.8607 85.253 60.4401C85.253 58.0196 84.493 55.0868 80.3255 55.0868H78.3963Z" fill="#F9F5ED"/>
<path d="M100.478 67.6193C96.0683 67.6193 92.4604 64.4056 92.4604 60.4814C92.4604 56.5573 96.0683 53.3849 100.478 53.3849C104.888 53.3849 108.495 56.5986 108.495 60.4814C108.495 64.3643 104.888 67.6193 100.478 67.6193ZM100.478 54.6076C96.7865 54.6076 95.5087 57.8956 95.5087 60.4732C95.5087 63.0507 96.7948 66.3388 100.478 66.3388C104.161 66.3388 105.489 63.0838 105.489 60.4732C105.489 57.8626 104.203 54.6076 100.478 54.6076Z" fill="#F9F5ED"/>
<path d="M290.276 55.2438V54.3681L295.93 53.2941V63.0094C295.93 65.8266 296.289 66.3388 298.536 66.3388V67.0906H290.56V66.3388C292.807 66.3388 293.166 65.8266 293.166 63.0094V58.2922C293.166 55.4751 292.481 55.2025 290.276 55.2355V55.2438Z" fill="#F9F5ED"/>
<path d="M308.842 66.1157C308.399 67.2227 307.839 67.8589 306.754 67.6193C306.236 67.5367 305.509 66.7105 306.269 65.3557L311.481 56.0782H306.754C305.593 56.0782 304.39 56.4747 304.148 57.5817L303.989 58.2922H303.146L303.948 53.8889H313.41V54.8389L308.842 66.0992V66.1157Z" fill="#F9F5ED"/>
<path d="M331.808 63.0177C331.808 65.8348 332.168 66.347 334.414 66.347V67.0988H326.438V66.347C328.685 66.347 329.044 65.8348 329.044 63.0177V57.9452C329.044 55.1281 328.685 54.6572 326.438 54.6572V53.9054H334.414V54.6572C332.168 54.6572 331.808 55.1364 331.808 57.9452V59.4901H338.866V57.9452C338.866 55.1281 338.465 54.6572 336.26 54.6572V53.9054H344.194V54.6572C341.947 54.6572 341.588 55.1364 341.588 57.9452V63.0177C341.588 65.8348 341.947 66.347 344.194 66.347V67.0988H336.26V66.347C338.465 66.347 338.866 65.8348 338.866 63.0177V60.721H331.808V63.0177Z" fill="#F9F5ED"/>
<path d="M353.055 61.5885V63.0177C353.055 65.8348 353.414 66.347 355.661 66.347V67.0988H347.685V66.347C349.931 66.347 350.29 65.8348 350.29 63.0177V57.9452C350.29 55.1281 349.931 54.6572 347.685 54.6572V53.9054H354.742C358.266 53.9054 360.154 55.5742 360.154 57.7552C360.154 59.4984 358.834 61.0432 356.345 61.4811L358.191 63.4638C359.795 65.207 360.955 66.124 362.684 66.3553V67.1071H358.191L353.74 61.5967H353.055V61.5885ZM354.7 55.0868H353.055V60.3575H354.7C356.504 60.3575 357.306 59.1266 357.306 57.7387C357.306 56.3508 356.504 55.0785 354.7 55.0785V55.0868Z" fill="#F9F5ED"/>
<path d="M370.293 67.6193C368.689 67.6193 367.244 66.7849 366.643 66.2727C366.442 66.471 366.083 67.0658 366 67.6193H365.24V62.1503H366.083C366.367 64.7691 368.205 66.314 370.576 66.314C371.863 66.314 372.907 65.6035 372.907 64.4139C372.907 63.3812 371.988 62.5881 370.343 61.8363L368.096 60.7624C366.451 60.0106 365.29 58.697 365.29 56.9539C365.29 55.0538 367.094 53.4263 369.541 53.4263C370.86 53.4263 371.988 53.9054 372.706 54.4589C372.865 54.302 373.107 53.8641 373.191 53.385H373.951V58.0609H373.107C372.823 56.1938 371.787 54.6489 369.7 54.6489C368.539 54.6489 367.495 55.2851 367.495 56.2764C367.495 57.2678 368.338 57.8626 370.259 58.7383L372.506 59.8123C374.427 60.721 375.153 62.1916 375.153 63.3812C375.153 65.8761 372.948 67.6275 370.301 67.6275L370.293 67.6193Z" fill="#F9F5ED"/>
<path d="M166.213 7.54263V11.7477H165.846L161.77 7.45175V9.75667C161.77 10.9876 161.929 11.2107 162.906 11.2107V11.5411H160.083V11.2107C161.06 11.2107 161.219 10.9876 161.219 9.75667V7.54263C161.219 6.31168 161.06 6.10515 160.083 6.10515V5.77469H161.82L165.67 9.80624V7.53437C165.67 6.30342 165.512 6.09689 164.535 6.09689V5.76643H167.357V6.09689C166.38 6.09689 166.222 6.30342 166.222 7.53437L166.213 7.54263Z" fill="#F9F5ED"/>
<path d="M172.168 11.7724C170.239 11.7724 168.669 10.368 168.669 8.65791C168.669 6.94781 170.247 5.5599 172.168 5.5599C174.089 5.5599 175.667 6.96433 175.667 8.65791C175.667 10.3515 174.089 11.7724 172.168 11.7724ZM172.168 6.08863C170.556 6.08863 169.996 7.5261 169.996 8.64965C169.996 9.7732 170.556 11.2107 172.168 11.2107C173.78 11.2107 174.356 9.78972 174.356 8.64965C174.356 7.50958 173.796 6.08863 172.168 6.08863Z" fill="#F9F5ED"/>
<path d="M182.257 7.27L180.119 11.7724H179.818L177.68 7.27C177.229 6.33647 177.07 6.11341 176.277 6.11341V5.78296H179.676V6.11341C178.657 6.11341 178.557 6.3943 178.891 7.07999L180.294 10.021L181.697 7.07999C182.048 6.36951 182.048 6.11341 180.945 6.11341V5.78296H183.726V6.11341C182.85 6.11341 182.708 6.31995 182.257 7.27Z" fill="#F9F5ED"/>
<path d="M184.378 11.5494V11.2189C185.355 11.2189 185.514 10.9959 185.514 9.76493V7.55089C185.514 6.31994 185.355 6.11341 184.378 6.11341V5.78296H187.861V6.11341C186.883 6.11341 186.725 6.31994 186.725 7.55089V9.76493C186.725 10.9959 186.883 11.2189 187.861 11.2189V11.5494H184.378Z" fill="#F9F5ED"/>
<path d="M194.375 7.41045H194.099L194.007 7.07999C193.849 6.50996 193.657 6.30342 192.412 6.30342H191.452V8.24484C192.813 8.24484 192.922 8.12092 192.922 7.22043H193.256V9.79798H192.922C192.922 8.89749 192.813 8.77357 191.452 8.77357V9.56666C191.452 10.7976 191.61 11.0041 192.521 11.0041H192.763C194.007 11.0041 194.199 10.7976 194.358 10.2276L194.442 9.91364H194.7L194.592 11.5411H189.097V11.2107C190.074 11.2107 190.232 10.9876 190.232 9.75667V7.54263C190.232 6.31168 190.074 6.10515 189.097 6.10515V5.77469H194.241L194.366 7.40218L194.375 7.41045Z" fill="#F9F5ED"/>
<path d="M201.365 11.5494V11.2189C202.342 11.2189 202.501 10.9959 202.501 9.76493V7.23696L200.363 11.7724H200.062L197.941 7.27V9.76493C197.941 10.9959 198.1 11.2189 199.077 11.2189V11.5494H196.254V11.2189C197.231 11.2189 197.39 10.9959 197.39 9.76493V7.55089C197.39 6.31994 197.231 6.11341 196.254 6.11341V5.78296H198.409L200.496 10.2028L202.584 5.78296H204.706V6.11341C203.729 6.11341 203.57 6.31994 203.57 7.55089V9.76493C203.57 10.9959 203.729 11.2189 204.706 11.2189V11.5494H201.365Z" fill="#F9F5ED"/>
<path d="M206.234 11.2189C207.211 11.2189 207.37 10.9959 207.37 9.76493V7.55089C207.37 6.31994 207.211 6.11341 206.234 6.11341V5.78296H209.366C210.769 5.78296 211.487 6.44386 211.487 7.28652C211.487 7.69959 211.295 8.07962 210.961 8.37703C211.629 8.67443 212.013 9.24447 212.013 9.88059C212.013 10.7976 211.186 11.5411 209.65 11.5411H206.234V11.2107V11.2189ZM209.299 6.29516H208.581V8.23658H209.299C209.95 8.23658 210.243 7.79047 210.243 7.28652C210.243 6.78258 209.942 6.30342 209.299 6.30342V6.29516ZM209.633 8.77357H208.581V10.1037C208.581 10.8637 208.664 11.0041 209.383 11.0041H209.625C210.376 11.0041 210.744 10.4837 210.744 9.88059C210.744 9.27751 210.376 8.77357 209.625 8.77357H209.633Z" fill="#F9F5ED"/>
<path d="M215.989 9.13707V9.75667C215.989 10.9876 216.147 11.2107 217.124 11.2107V11.5411H213.642V11.2107C214.619 11.2107 214.778 10.9876 214.778 9.75667V7.54263C214.778 6.31168 214.619 6.10515 213.642 6.10515V5.77469H216.724C218.26 5.77469 219.087 6.5017 219.087 7.45175C219.087 8.2118 218.511 8.88923 217.425 9.07924L218.227 9.94668C218.928 10.7067 219.438 11.1033 220.189 11.2107V11.5411H218.227L216.281 9.13707H215.98H215.989ZM216.707 6.29516H215.989V8.60008H216.707C217.492 8.60008 217.843 8.06309 217.843 7.46001C217.843 6.85693 217.492 6.30342 216.707 6.30342V6.29516Z" fill="#F9F5ED"/>
<path d="M226.253 7.41045H225.977L225.885 7.07999C225.727 6.50996 225.535 6.30342 224.29 6.30342H223.33V8.24484C224.699 8.24484 224.8 8.12092 224.8 7.22043H225.134V9.79798H224.8C224.8 8.89749 224.699 8.77357 223.33 8.77357V9.56666C223.33 10.7976 223.488 11.0041 224.399 11.0041H224.641C225.885 11.0041 226.077 10.7976 226.236 10.2276L226.32 9.91364H226.578L226.47 11.5411H220.975V11.2107C221.952 11.2107 222.11 10.9876 222.11 9.75667V7.54263C222.11 6.31168 221.952 6.10515 220.975 6.10515V5.77469H226.119L226.244 7.40218L226.253 7.41045Z" fill="#F9F5ED"/>
<path d="M172.911 106.282H160.91V105.217L167.775 99.4916C169.504 98.0624 169.921 97.0463 169.921 95.2866C169.921 93.5269 168.61 92.2382 166.464 92.2382C164.317 92.2382 162.213 94.3613 164.125 97.2776L162.722 98.4755C158.613 95.7988 160.668 90.4372 166.506 90.4372C169.821 90.4372 172.861 92.2381 172.861 95.1957C172.861 97.4098 171.316 99.029 169.779 100.136L164.877 103.788H173.421L172.903 106.282H172.911Z" fill="#F9F5ED"/>
<path d="M185.096 106.886C181.497 106.886 178.607 103.143 178.607 98.5664C178.607 93.9896 181.505 90.2472 185.096 90.2472C188.687 90.2472 191.544 94.0391 191.544 98.5664C191.544 103.094 188.646 106.886 185.096 106.886ZM185.096 91.7342C182.808 91.7342 181.822 94.8735 181.822 98.5746C181.822 102.276 182.799 105.456 185.096 105.456C187.393 105.456 188.37 102.226 188.37 98.5746C188.37 94.9231 187.343 91.7342 185.096 91.7342Z" fill="#F9F5ED"/>
<path d="M208.731 106.282H196.73V105.217L203.595 99.4916C205.324 98.0624 205.741 97.0463 205.741 95.2866C205.741 93.5269 204.43 92.2382 202.284 92.2382C200.137 92.2382 198.033 94.3613 199.945 97.2776L198.542 98.4755C194.433 95.7988 196.488 90.4372 202.325 90.4372C205.641 90.4372 208.681 92.2381 208.681 95.1957C208.681 97.4098 207.136 99.029 205.599 100.136L200.697 103.788H209.241L208.723 106.282H208.731Z" fill="#F9F5ED"/>
<path d="M219.939 106.886C216.298 106.886 214.519 104.944 214.519 103.655C214.519 103.143 214.895 102.639 215.596 102.639C216.907 102.639 216.39 105.456 219.939 105.456C222.411 105.456 223.672 103.424 223.672 101.342C223.672 99.2603 222.695 97.3685 220.265 97.3685C218.77 97.3685 217.225 98.3846 216.765 100.095H215.037L216.064 90.8998H226.011L225.543 93.4443H217.559L217.233 97.1371C217.751 96.5341 219.146 95.7988 220.64 95.7988C224.098 95.7988 226.762 98.2937 226.762 101.342C226.762 104.391 223.68 106.886 219.939 106.886Z" fill="#F9F5ED"/>
<path d="M160.793 71.1882L172.786 56.2516C178.632 48.9734 181.513 43.3391 181.513 39.2084C181.513 33.8799 179.083 29.8979 173.245 29.8979C167.408 29.8979 163.157 34.9291 167.399 41.1581L165.278 43.4878C155.715 38.0105 159.357 26.676 173.32 26.676C182.348 26.676 187.359 32.7563 187.359 39.1341C187.359 45.1401 183.568 49.7913 177.496 56.6234L167.483 67.958H178.866C185.547 67.958 186.608 66.7601 187.819 62.2494H189.489L187.593 72.9809H160.801V71.1799L160.793 71.1882Z" fill="#F9F5ED"/>
<path d="M198.358 71.1882L210.351 56.2516C216.197 48.9734 219.079 43.3391 219.079 39.2084C219.079 33.8799 216.648 29.8979 210.802 29.8979C204.956 29.8979 200.714 34.9291 204.956 41.1581L202.835 43.4878C193.272 38.0105 196.914 26.676 210.877 26.676C219.906 26.676 224.916 32.7563 224.916 39.1341C224.916 45.1401 221.125 49.7913 215.053 56.6234L205.04 67.958H216.423C223.104 67.958 224.165 66.7601 225.376 62.2494H227.046L225.15 72.9809H198.358V71.1799V71.1882Z" fill="#F9F5ED"/>
<path d="M138.544 0V111H137.292V0H138.544Z" fill="#F9F5ED"/>
<path d="M250.322 0V111H249.069V0H250.322Z" fill="#F9F5ED"/>
<path d="M113.723 38.6467V39.8859H0V38.6467H113.723Z" fill="#F9F5ED"/>
<path d="M113.723 78.8052V80.0444H0V78.8052H113.723Z" fill="#F9F5ED"/>
<path d="M389 38.6467V39.8859H275.277V38.6467H389Z" fill="#F9F5ED"/>
<path d="M389 78.8052V80.0444H275.277V78.8052H389Z" fill="#F9F5ED"/>
</svg>

<svg xmlns="http://www.w3.org/2000/svg" fill="none" viewBox="0 0 389 111"><path fill="#f9f5ed" d="M12.085 67.62c-1.604 0-3.049-.835-3.65-1.347-.2.198-.56.793-.643 1.346h-.76V62.15h.844c.283 2.62 2.12 4.164 4.493 4.164 1.286 0 2.321-.71 2.321-1.9 0-1.033-.918-1.826-2.563-2.578L9.88 60.762c-1.645-.751-2.806-2.065-2.806-3.808 0-1.9 1.804-3.528 4.25-3.528 1.32 0 2.448.48 3.166 1.033.159-.157.4-.595.484-1.074h.76v4.676h-.843c-.284-1.867-1.32-3.412-3.408-3.412-1.16 0-2.204.636-2.204 1.627 0 .992.843 1.587 2.764 2.462l2.247 1.074c1.92.909 2.647 2.38 2.647 3.57 0 2.494-2.205 4.246-4.852 4.246zM23.835 64.133c-.76 1.586-.76 2.222 1.72 2.222v.752h-6.371v-.752c2.004 0 2.363-.512 3.365-2.693l4.894-10.269h.718l4.853 10.27c1.002 2.139 1.403 2.692 3.207 2.692v.752h-7.734v-.752c2.289 0 2.522-.636 1.762-2.222l-.6-1.305h-5.212zm3.207-6.75-2.004 4.247h4.009zm4.97-8.798-5.496 2.338-.2-.28 3.725-3.487c.684-.595 1.119-.909 1.762-.909.76 0 1.16.678 1.16 1.148 0 .595-.6 1.033-.96 1.19zM38.3 66.347c2.247 0 2.606-.512 2.606-3.33v-5.072c0-2.817-.36-3.288-2.606-3.288v-.752h7.174c3.207 0 4.853 1.504 4.853 3.454 0 .95-.443 1.825-1.203 2.495 1.52.677 2.405 1.982 2.405 3.453 0 2.098-1.887 3.808-5.412 3.808H38.3zm7.016-11.26H43.67v4.444h1.646c1.486 0 2.163-1.032 2.163-2.18s-.685-2.264-2.163-2.264m.76 5.667H43.67v3.057c0 1.743.2 2.065 1.846 2.065h.56c1.72 0 2.564-1.19 2.564-2.577s-.844-2.537-2.564-2.537zM58.545 64.133c-.76 1.586-.76 2.222 1.72 2.222v.752h-6.372v-.752c2.004 0 2.363-.512 3.365-2.693l4.895-10.269h.718l4.852 10.27c1.002 2.139 1.403 2.692 3.207 2.692v.752h-7.734v-.752c2.289 0 2.523-.636 1.763-2.222l-.602-1.305h-5.211zm3.207-6.75-2.005 4.247h4.009zM73.018 66.347c2.246 0 2.606-.512 2.606-3.33v-5.072c0-2.817-.36-3.288-2.606-3.288v-.752h7.174c5.73 0 8.218 2.974 8.218 6.585s-2.489 6.625-8.218 6.625h-7.174zm5.378-11.26v8.608c0 1.826.2 2.181 1.646 2.181h.284c4.167 0 4.927-3.015 4.927-5.436s-.76-5.353-4.927-5.353zM100.478 67.62c-4.41 0-8.018-3.214-8.018-7.139 0-3.924 3.608-7.096 8.018-7.096s8.017 3.214 8.017 7.096-3.607 7.138-8.017 7.138m0-13.012c-3.691 0-4.97 3.288-4.97 5.865s1.287 5.866 4.97 5.866 5.011-3.255 5.011-5.866-1.286-5.865-5.011-5.865M290.276 55.244v-.876l5.654-1.074v9.715c0 2.818.359 3.33 2.606 3.33v.752h-7.976v-.752c2.247 0 2.606-.512 2.606-3.33v-4.717c0-2.817-.685-3.09-2.89-3.056zM308.842 66.116c-.443 1.107-1.003 1.743-2.088 1.503-.518-.082-1.245-.909-.485-2.263l5.212-9.278h-4.727c-1.161 0-2.364.397-2.606 1.504l-.159.71h-.843l.802-4.403h9.462v.95l-4.568 11.26zM331.808 63.018c0 2.817.36 3.329 2.606 3.329v.752h-7.976v-.752c2.247 0 2.606-.512 2.606-3.33v-5.072c0-2.817-.359-3.288-2.606-3.288v-.752h7.976v.752c-2.246 0-2.606.48-2.606 3.288v1.545h7.058v-1.545c0-2.817-.401-3.288-2.606-3.288v-.752h7.934v.752c-2.247 0-2.606.48-2.606 3.288v5.073c0 2.817.359 3.329 2.606 3.329v.752h-7.934v-.752c2.205 0 2.606-.512 2.606-3.33v-2.296h-7.058zM353.055 61.589v1.429c0 2.817.359 3.329 2.606 3.329v.752h-7.976v-.752c2.246 0 2.605-.512 2.605-3.33v-5.072c0-2.817-.359-3.288-2.605-3.288v-.752h7.057c3.524 0 5.412 1.67 5.412 3.85 0 1.743-1.32 3.288-3.809 3.726l1.846 1.983c1.604 1.743 2.764 2.66 4.493 2.891v.752h-4.493l-4.451-5.51h-.685zm1.645-6.502h-1.645v5.27h1.645c1.804 0 2.606-1.23 2.606-2.618s-.802-2.66-2.606-2.66zM370.293 67.62c-1.604 0-3.049-.835-3.65-1.347-.201.198-.56.793-.643 1.346h-.76V62.15h.843c.284 2.62 2.122 4.164 4.493 4.164 1.287 0 2.331-.71 2.331-1.9 0-1.033-.919-1.826-2.564-2.578l-2.247-1.074c-1.645-.751-2.806-2.065-2.806-3.808 0-1.9 1.804-3.528 4.251-3.528 1.319 0 2.447.48 3.165 1.033.159-.157.401-.595.485-1.074h.76v4.676h-.844c-.284-1.867-1.32-3.412-3.407-3.412-1.161 0-2.205.636-2.205 1.627 0 .992.843 1.587 2.764 2.462l2.247 1.074c1.921.909 2.647 2.38 2.647 3.57 0 2.494-2.205 4.246-4.852 4.246zM166.213 7.543v4.205h-.367l-4.076-4.296v2.305c0 1.23.159 1.454 1.136 1.454v.33h-2.823v-.33c.977 0 1.136-.223 1.136-1.454V7.543c0-1.231-.159-1.438-1.136-1.438v-.33h1.737l3.85 4.031V7.534c0-1.23-.158-1.437-1.135-1.437v-.33h2.822v.33c-.977 0-1.135.206-1.135 1.437zM172.168 11.772c-1.929 0-3.499-1.404-3.499-3.114s1.578-3.098 3.499-3.098 3.499 1.404 3.499 3.098-1.578 3.114-3.499 3.114m0-5.683c-1.612 0-2.172 1.437-2.172 2.56 0 1.124.56 2.562 2.172 2.562s2.188-1.421 2.188-2.561-.56-2.561-2.188-2.561M182.257 7.27l-2.138 4.502h-.301L177.68 7.27c-.451-.934-.61-1.157-1.403-1.157v-.33h3.399v.33c-1.019 0-1.119.281-.785.967l1.403 2.941 1.403-2.941c.351-.71.351-.967-.752-.967v-.33h2.781v.33c-.876 0-1.018.207-1.469 1.157M184.378 11.55v-.331c.977 0 1.136-.223 1.136-1.454V7.55c0-1.231-.159-1.438-1.136-1.438v-.33h3.483v.33c-.978 0-1.136.207-1.136 1.438v2.214c0 1.23.158 1.454 1.136 1.454v.33zM194.375 7.41h-.276l-.092-.33c-.158-.57-.35-.777-1.595-.777h-.96v1.942c1.361 0 1.47-.124 1.47-1.025h.334v2.578h-.334c0-.9-.109-1.024-1.47-1.024v.793c0 1.23.158 1.437 1.069 1.437h.242c1.244 0 1.436-.206 1.595-.776l.084-.314h.258l-.108 1.627h-5.495v-.33c.977 0 1.135-.223 1.135-1.454V7.543c0-1.231-.158-1.438-1.135-1.438v-.33h5.144l.125 1.627zM201.365 11.55v-.331c.977 0 1.136-.223 1.136-1.454V7.237l-2.138 4.535h-.301l-2.121-4.502v2.495c0 1.23.159 1.454 1.136 1.454v.33h-2.823v-.33c.977 0 1.136-.223 1.136-1.454V7.55c0-1.231-.159-1.438-1.136-1.438v-.33h2.155l2.087 4.42 2.088-4.42h2.122v.33c-.977 0-1.136.207-1.136 1.438v2.214c0 1.23.159 1.454 1.136 1.454v.33zM206.234 11.219c.977 0 1.136-.223 1.136-1.454V7.55c0-1.231-.159-1.438-1.136-1.438v-.33h3.132c1.403 0 2.121.66 2.121 1.504 0 .413-.192.793-.526 1.09.668.297 1.052.867 1.052 1.504 0 .917-.827 1.66-2.363 1.66h-3.416v-.33zm3.065-4.924h-.718v1.942h.718c.651 0 .944-.447.944-.95 0-.504-.301-.984-.944-.984zm.334 2.479h-1.052v1.33c0 .76.083.9.802.9h.242c.751 0 1.119-.52 1.119-1.123s-.368-1.107-1.119-1.107zM215.989 9.137v.62c0 1.23.158 1.454 1.135 1.454v.33h-3.482v-.33c.977 0 1.136-.223 1.136-1.454V7.543c0-1.231-.159-1.438-1.136-1.438v-.33h3.082c1.536 0 2.363.727 2.363 1.677 0 .76-.576 1.437-1.662 1.627l.802.868c.701.76 1.211 1.156 1.962 1.264v.33h-1.962l-1.946-2.404h-.301zm.718-2.842h-.718V8.6h.718c.785 0 1.136-.537 1.136-1.14s-.351-1.157-1.136-1.157zM226.253 7.41h-.276l-.092-.33c-.158-.57-.35-.777-1.595-.777h-.96v1.942c1.369 0 1.47-.124 1.47-1.025h.334v2.578h-.334c0-.9-.101-1.024-1.47-1.024v.793c0 1.23.158 1.437 1.069 1.437h.242c1.244 0 1.436-.206 1.595-.776l.084-.314h.258l-.108 1.627h-5.495v-.33c.977 0 1.135-.223 1.135-1.454V7.543c0-1.231-.158-1.438-1.135-1.438v-.33h5.144l.125 1.627zM172.911 106.282H160.91v-1.065l6.865-5.725c1.729-1.43 2.146-2.446 2.146-4.205 0-1.76-1.311-3.049-3.457-3.049s-4.251 2.123-2.339 5.04l-1.403 1.197c-4.109-2.676-2.054-8.038 3.784-8.038 3.315 0 6.355 1.801 6.355 4.759 0 2.214-1.545 3.833-3.082 4.94l-4.902 3.652h8.544l-.518 2.494zM185.096 106.886c-3.599 0-6.489-3.743-6.489-8.32 0-4.576 2.898-8.319 6.489-8.319s6.448 3.792 6.448 8.32c0 4.527-2.898 8.319-6.448 8.319m0-15.152c-2.288 0-3.274 3.14-3.274 6.84 0 3.702.977 6.882 3.274 6.882s3.274-3.23 3.274-6.881-1.027-6.84-3.274-6.84M208.731 106.282H196.73v-1.065l6.865-5.725c1.729-1.43 2.146-2.446 2.146-4.205 0-1.76-1.311-3.049-3.457-3.049s-4.251 2.123-2.339 5.04l-1.403 1.197c-4.109-2.676-2.054-8.038 3.783-8.038 3.316 0 6.356 1.801 6.356 4.759 0 2.214-1.545 3.833-3.082 4.94l-4.902 3.652h8.544l-.518 2.494zM219.939 106.886c-3.641 0-5.42-1.942-5.42-3.231 0-.512.376-1.016 1.077-1.016 1.311 0 .794 2.817 4.343 2.817 2.472 0 3.733-2.032 3.733-4.114s-.977-3.974-3.407-3.974c-1.495 0-3.04 1.017-3.5 2.727h-1.728l1.027-9.195h9.947l-.468 2.544h-7.984l-.326 3.693c.518-.603 1.913-1.338 3.407-1.338 3.458 0 6.122 2.495 6.122 5.543s-3.082 5.544-6.823 5.544M160.793 71.188l11.993-14.936c5.846-7.279 8.727-12.913 8.727-17.044 0-5.328-2.43-9.31-8.268-9.31-5.837 0-10.088 5.031-5.846 11.26l-2.121 2.33c-9.563-5.477-5.921-16.812 8.042-16.812 9.028 0 14.039 6.08 14.039 12.458 0 6.006-3.791 10.657-9.863 17.49l-10.013 11.334h11.383c6.681 0 7.742-1.198 8.953-5.709h1.67l-1.896 10.732h-26.792V71.18zM198.358 71.188l11.993-14.936c5.846-7.279 8.728-12.913 8.728-17.044 0-5.328-2.431-9.31-8.277-9.31s-10.088 5.031-5.846 11.26l-2.121 2.33c-9.563-5.477-5.921-16.812 8.042-16.812 9.029 0 14.039 6.08 14.039 12.458 0 6.006-3.791 10.657-9.863 17.49L205.04 67.957h11.383c6.681 0 7.742-1.198 8.953-5.709h1.67l-1.896 10.732h-26.792V71.18zM138.544 0v111h-1.252V0zM250.322 0v111h-1.253V0zM113.723 38.647v1.239H0v-1.24zM113.723 78.805v1.24H0v-1.24zM389 38.647v1.239H275.277v-1.24zM389 78.805v1.24H275.277v-1.24z"/></svg>
